X:207
T: Daft Robin
N: O'Farrell's Pocket Companion v.3 (Sky ed. p.104)
N: "Scotch"
M: C
R: reel
L: 1/8
Q: 320
K: A
AB| c2 BA F2 AF| E2 FA B2 A>c| c>e d/c/B/A/ F2 AF|E2 FA A2 :|
zc| d>cde f2 a>f| ecBA e3f| e>c d/c/B/A/ F2 AF|E2 FA A2 :|
